X: 39555
T: Teahan's Favourite
R: slide
M: 12/8
K: Adorian
efe B2 A GFE B2 A|FED A2 D d2 D A2 B|
efe B2 A GFE B2 A|1 FED F2 A F2 E E3:|2 FED F2 A F2 E E2 A||
B2 e ede f2 a afa|baf a2 f e2 d B2 A|
B2 e ede f2 a afa|baf a2 f e3 e2 d|
B2 e ede f2 a afa|baf a2 f e2 d B2 e|
fgf f2 e ded B2 A|FED F2 A F2 E E3||

